symbols/be/PVR-{120}.svg

<?xml version="1.0" encoding="UTF-8" standalone="no"?>
<!-- Initially created with Inkscape, optimized by hand -->

<svg
   version="1.1"
   width="20"
   height="17.320999"
   id="svg1"
   xmlns="http://www.w3.org/2000/svg"
   xmlns:svg="http://www.w3.org/2000/svg">
  <defs
     id="defs1" />
  <path
     id="Fond"
     d="M 20,17.320999 H 0 L 10,-1.2114258e-6 Z"
     fill="#0b9b7b"
     style="stroke-width:0.1" />
  <path
     style="font-size:10.6667px;font-family:Isonorm;-inkscape-font-specification:'Isonorm, Normal';fill:#ffffff;fill-rule:evenodd;stroke-width:0.377953;stroke-linejoin:bevel"
     d="M 8.845864,15.130489 V 8.7411348 c 0,-0.106667 -0.032,-0.192 -0.106667,-0.266667 -0.064,-0.07467 -0.362667,-0.149334 -0.501334,-0.01067 l -1.429338,1.429338 c -0.149334,0.1493342 -0.096,0.4266682 0.01067,0.5333352 0.096,0.106667 0.352002,0.128 0.490669,-0.01067 L 8.1312,9.5837988 V 15.14115 c 0,0.192 0.170667,0.352001 0.362667,0.352001 0.192001,0 0.352001,-0.160001 0.352001,-0.362668 z m 4.437336,0.01067 c 0,-0.192001 -0.16,-0.362668 -0.352,-0.362668 h -2.20801 l 2.30401,-3.669345 c 0.192,-0.320001 0.256,-0.576002 0.256,-0.949337 0.0213,-1.0666702 -0.78933,-1.7386722 -1.77067,-1.7813382 -0.77867,-0.02133 -1.312,0.330667 -1.728006,1.002669 -0.08533,0.149334 -0.128,0.565335 0.298666,0.597336 0.128,0 0.23467,-0.04267 0.29867,-0.160001 0.27733,-0.490668 0.53333,-0.736002 1.13067,-0.725336 0.736,0.01067 1.056,0.480002 1.06667,1.0666702 0,0.224001 -0.032,0.352002 -0.14933,0.565336 l -2.645346,4.20268 c -0.04267,0.07467 -0.05333,0.128 -0.05333,0.213334 0.01067,0.192 0.160001,0.341334 0.351996,0.352001 h 2.84801 c 0.192,0 0.352,-0.160001 0.352,-0.352001 z"
     id="text1"
     aria-label="12" />
</svg>

<?xml version="1.0" encoding="UTF-8"?>
<svg xmlns="http://www.w3.org/2000/svg" xmlns:xlink="http://www.w3.org/1999/xlink" width="20" height="17.320999" viewBox="0 0 20 17.320999">
<path fill-rule="nonzero" fill="rgb(4.313725%, 60.784314%, 48.235294%)" fill-opacity="1" d="M 20 17.320312 L 0 17.320312 L 10 0 Z M 20 17.320312 "/>
<path fill-rule="evenodd" fill="rgb(100%, 100%, 100%)" fill-opacity="1" d="M 8.847656 15.128906 L 8.847656 8.742188 C 8.847656 8.632812 8.8125 8.550781 8.738281 8.472656 C 8.675781 8.398438 8.375 8.324219 8.238281 8.464844 L 6.808594 9.894531 C 6.660156 10.042969 6.710938 10.320312 6.820312 10.425781 C 6.914062 10.53125 7.171875 10.554688 7.308594 10.414062 L 8.132812 9.582031 L 8.132812 15.140625 C 8.132812 15.332031 8.300781 15.492188 8.492188 15.492188 C 8.6875 15.492188 8.847656 15.332031 8.847656 15.128906 Z M 13.28125 15.140625 C 13.28125 14.949219 13.125 14.777344 12.929688 14.777344 L 10.722656 14.777344 L 13.027344 11.109375 C 13.21875 10.789062 13.28125 10.53125 13.28125 10.160156 C 13.304688 9.09375 12.492188 8.421875 11.511719 8.378906 C 10.734375 8.355469 10.199219 8.710938 9.785156 9.382812 C 9.699219 9.53125 9.65625 9.945312 10.082031 9.976562 C 10.210938 9.976562 10.316406 9.9375 10.382812 9.820312 C 10.660156 9.328125 10.914062 9.082031 11.511719 9.09375 C 12.25 9.105469 12.570312 9.574219 12.578125 10.160156 C 12.578125 10.382812 12.546875 10.511719 12.429688 10.726562 L 9.785156 14.929688 C 9.742188 15.003906 9.730469 15.054688 9.730469 15.140625 C 9.742188 15.332031 9.890625 15.484375 10.082031 15.492188 L 12.929688 15.492188 C 13.125 15.492188 13.28125 15.332031 13.28125 15.140625 Z M 13.28125 15.140625 "/>
</svg>
